!!!OTL: De Steffchen, de fiert mat Spien an 't Stat (1-26), S.70
!!!id: K1075
**kern
*clefG2
*k[b-]
*F:
{4c
=1
4f
8f
8f
=2
4a
8f
8a
=3
4cc
4cc
=4
4cc}
8r
=5
{8ff
=6
4cc
8a
8a
=7
8b-
8a
8g
8b-
=8
4.a
8a
=9
4a}
=10
{8a
8a
=11
8.g
16f
8.g
16a
=12
4b-
8b-
8b-
=13
8.a
8g
8a
16b-
=14
4cc}
=15
{4ff
=16
4cc
8a
8a
=17
8b-
8g
8g
8b-
=18
4a
4f
=19
4f}
==
*-
!!!minrhy: 16
!!!meters: 2/4 ]  ZZ[4
!!!cut: De Steffchen, de fiert mat Spien an 't Stat (1-26), S.70
!!!reg: Luxemburg
!!!trd: KINTZELE, Guillaume: An der Ucht, Bd. 1, Luxemburg 1926
!!!rhy1: X__  X__X_X_  X__X_X_  X__X__  X__0   (x2)
!!!rhy2: X_  X__X_X_  X_X_X_X_  X__.X_  X__
!!!key: K1075  16  F 2/4 ]  ZZ[4
!!!mod: PENTATONIK DUR ?]  AMBITUS[11
!!!kad: 5351
!!!akz: 1355_5433_2435_5431_
!!!fot: 'a__b__c__d__
!!!for: 'a__b__c__d__
!!!fok: '/__\__Va_\__
!! PHRAS[AUFTAKTIG]
!!!fkt: Fuhrmannslied?
!! KINTZELE
!! PR[27] 2K[0] 2G[5] 3K[5] 3G[11] 4A[3] 4Ü[0] 5A[3] 6K[0] 6G[0]
!! 7K[0] 7G[0] 8A[0] MEHR[0] SI[27] ABS[73] SR[5] SP[22]
!! ST[12] 2k[8] 2g[27] 3k[3] 3g[7] 4d[0] 4ü[0] 5d[0] 6k[0] 6g[0]
!! 7k[0] 7g[0] 8d[0] mehr[0] si[45] dm[-18] sr[36] sp[10]
!! 1F[34] 2F[52] 3F[6] 4F[0] LF[0] 2P[8] 3P[0] 4P[0] TRI[0] DF[4] AB[77]
!! TF[0] U3K[0] U3[0] U4[0] U4Ü[0] U5[0] U6K[0] U6[0] U7K[0] U7[0]
!! N1[16] N2K[0] N2[0] N3K[0] N3[16] N4[8] N4Ü[0] N5[24] N6K[0] N6[16]
!!!n7k: 0] N7[8] O1[11] O2K[0] O2[0] O3K[0] O3[0] HÖ[0
